X:142
T:Jack and Jill (reel) 
B:CRE2.297 (SeÃÂÃÂÃÂÃÂ¡n is SinÃÂÃÂÃÂÃÂ©ad)
F:file ID: cre.2/142jack_j
S:Joe Ryan/Johnny Henry (Sligo)
L:1/8
M:C
R:reel
Q:180
K:Em
Bd||e2eg edBd|edeg dGBd|e2eg ed (3B^cd|edge dGBd|
"5"e2zg edBd|edeg dGBd|e2eg edBd|edge dGBd||
"9"|:eAA2 A2Bd|eAA2 GABd|eAA2 A2Bd|edge dGBd:|
"13"eaaf g2fg|eaa2 BA (3Bcd|eaaf g2fg|edge dGBd|
"17"eaaf g2fg|eaa2 BABd|eaaf g2fg|edge dGBd||

%%%

